assets/printer-fill.svg

<svg xmlns="http://www.w3.org/2000/svg" fill="none" viewBox="0 0 28 23">
  <path fill="#2A2238" d="M8.75 0c-.92826 0-1.8185.368749-2.47487 1.02513C5.61875 1.6815 5.25 2.57174 5.25 3.5v1.75h17.5V3.5c0-.92826-.3687-1.8185-1.0251-2.47487C21.0685.368749 20.1783 0 19.25 0H8.75Zm10.5 14H8.75c-.46413 0-.90925.1844-1.23744.5126C7.18437 14.8408 7 15.2859 7 15.75V21c0 .4641.18437.9092.51256 1.2374.32819.3282.77331.5126 1.23744.5126h10.5c.4641 0 .9092-.1844 1.2374-.5126C20.8156 21.9092 21 21.4641 21 21v-5.25c0-.4641-.1844-.9092-.5126-1.2374C20.1592 14.1844 19.7141 14 19.25 14Z"/>
  <path fill="#2A2238" d="M0 10.5c0-.92826.368749-1.8185 1.02513-2.47487C1.6815 7.36875 2.57174 7 3.5 7h21c.9283 0 1.8185.36875 2.4749 1.02513C27.6313 8.6815 28 9.57174 28 10.5v5.25c0 .9283-.3687 1.8185-1.0251 2.4749-.6564.6564-1.5466 1.0251-2.4749 1.0251h-1.75v-3.5c0-.9283-.3687-1.8185-1.0251-2.4749-.6564-.6564-1.5466-1.0251-2.4749-1.0251H8.75c-.92826 0-1.8185.3687-2.47487 1.0251C5.61875 13.9315 5.25 14.8217 5.25 15.75v3.5H3.5c-.92826 0-1.8185-.3687-2.47487-1.0251C.368749 17.5685 0 16.6783 0 15.75V10.5Zm4.375 1.75c.23206 0 .45462-.0922.61872-.2563.16409-.1641.25628-.3866.25628-.6187 0-.2321-.09219-.4546-.25628-.6187-.1641-.1641-.38666-.2563-.61872-.2563-.23206 0-.45462.0922-.61872.2563-.16409.1641-.25628.3866-.25628.6187 0 .2321.09219.4546.25628.6187.1641.1641.38666.2563.61872.2563Z"/>
</svg>

<svg width="28" height="23" viewBox="0 0 28 23" fill="none" xmlns="http://www.w3.org/2000/svg">
<path d="M8.75 0C7.82174 0 6.9315 0.368749 6.27513 1.02513C5.61875 1.6815 5.25 2.57174 5.25 3.5V5.25H22.75V3.5C22.75 2.57174 22.3813 1.6815 21.7249 1.02513C21.0685 0.368749 20.1783 0 19.25 0H8.75ZM19.25 14H8.75C8.28587 14 7.84075 14.1844 7.51256 14.5126C7.18437 14.8408 7 15.2859 7 15.75V21C7 21.4641 7.18437 21.9092 7.51256 22.2374C7.84075 22.5656 8.28587 22.75 8.75 22.75H19.25C19.7141 22.75 20.1592 22.5656 20.4874 22.2374C20.8156 21.9092 21 21.4641 21 21V15.75C21 15.2859 20.8156 14.8408 20.4874 14.5126C20.1592 14.1844 19.7141 14 19.25 14Z" fill="#2A2238"/>
<path d="M0 10.5C0 9.57174 0.368749 8.6815 1.02513 8.02513C1.6815 7.36875 2.57174 7 3.5 7H24.5C25.4283 7 26.3185 7.36875 26.9749 8.02513C27.6313 8.6815 28 9.57174 28 10.5V15.75C28 16.6783 27.6313 17.5685 26.9749 18.2249C26.3185 18.8813 25.4283 19.25 24.5 19.25H22.75V15.75C22.75 14.8217 22.3813 13.9315 21.7249 13.2751C21.0685 12.6187 20.1783 12.25 19.25 12.25H8.75C7.82174 12.25 6.9315 12.6187 6.27513 13.2751C5.61875 13.9315 5.25 14.8217 5.25 15.75V19.25H3.5C2.57174 19.25 1.6815 18.8813 1.02513 18.2249C0.368749 17.5685 0 16.6783 0 15.75V10.5ZM4.375 12.25C4.60706 12.25 4.82962 12.1578 4.99372 11.9937C5.15781 11.8296 5.25 11.6071 5.25 11.375C5.25 11.1429 5.15781 10.9204 4.99372 10.7563C4.82962 10.5922 4.60706 10.5 4.375 10.5C4.14294 10.5 3.92038 10.5922 3.75628 10.7563C3.59219 10.9204 3.5 11.1429 3.5 11.375C3.5 11.6071 3.59219 11.8296 3.75628 11.9937C3.92038 12.1578 4.14294 12.25 4.375 12.25Z" fill="#2A2238"/>
</svg>
